................................................................................................................................................................................................
................................................................................................................................................................................................
................................................................................................................................................................................................
................................................................................................................................................................................................
................................................................................................................................................................................................
................................................................................................................................................................................................
................................................................................................................................................................................................
................................................................................................................................................................................................
................................................................................................................................................................................................
................................................................................................................................................................................................
.............................................................oooooooooooooooooooooooooooooooooooooooooooooooooooooooooooooooooooooo.............................................................
...........................................................oooooooooooooooooooooooooooooooooooooooooooooooooooooooooooooooooooooooooo...........................................................
..........................................................oooooooooooooooooooooooooooooooooooooooooooooooooooooooooooooooooooooooooooo..........................................................
........................................................oooooooooooooooooooooooooooooooooooooooooooooooooooooooooooooooooooooooooooooooo........................................................
.......................................................ooooooooossssssssssssssssssssssssssssssssssssssssssssssssssssssssssssssssooooooooo....T..................................................
.....................................................ooooooooossssssssssssssssssssssssssssssssssssssssssssssssssssssssssssssssssssoooooooTTTTTT.................................................
...................................................oooooooooossssssssssssssssssssssssssssssssssssssssssssssssssssssssssssssssssssssoTTTGGGGGTTTT................................................
..................................................oooooooobbssssssSSSSSSSSSSSSbbSSSSSSSSSSSSSSSSaSbbSSSSSSSSSSSSSSSSSSbbSSSSSSssTTGGGGGTTTTTTTTT................................................
................................................oooooooooobbssssSSSSSSSSSSSSSSbbSSSSSSSSSSSSSSaaaaabSSSSSSSSSSSSSSSSSSbbSSSSSSSSsTTTTTTTTTTTTTTTT...............................................
...............................................ooooooooosbbsssSSSSSSSSSSSSSSSbbSSSSSSSSSSSSSSaaaaaaaaSSSSSSSSSSSSSSSSbbSSSSSSSSSSSTTTTTTTTTTTTTTTT..............................................
.............................................oooooooooossbbsSSSSSssssssssssssbbssssssssssssaaaayyaaaaaassssssssssssssbbssssssssSSSTTTTTTTTTTTTTTooo.............................................
...........................................oooooooooossssbbSSSSssssssssssssssbbsssssssssssaaaaayyaaaaaaaassssssssssssbbssssssssssSSTTTTTTTTTTTooooooo...........................................
..........................................oooooooooossssbbSSSsssssssssssssssbbssssssssssaaaaaaayyaaaaaaaaaasssssssssbbsssssssssssssSSSSTTTTTTooooooooo..........................................
........................................oooooooooosssssSbbSSssTsssssssssssssbbssssssssssaaaaaaayyaaaaaaaaaasssssssssbbssssssssssssssSSSSbbTsssoooooooooo........................................
......................................oooooooooosssssSSSbbTTTTTTssssssssssssbbssssssssssaayyyyyyyyyyyyaaaassssssssssbbssssssssssssssssSSbbSsssssoooooooooo......................................
.....................................oooooooooossssSSTTTGGGGGTTTTsssssssssssbbssssssssssaayyyyyyyyyyyyaaaassssssssssbbssssssssssssssssssbbSSSssssoooooooooo.....................................
...................................oooooooooossssTTGGGGGTTTTTTTTTssssssssssbbsssssssssssaaaaaaayyaayyyaaaasssssssssbbssssssssssssssssssbbsSSSSSssssoooooooooo...................................
..................................oooooooooosssSSSTTTTTTTTTTTTTTTTsssssssssbbsssssssssssaaaaaaayyayyyaaaassssssssssbbssssssssssssssssssbbsssSSSSSsssoooooooooo..................................
................................oooooooooossssSSSSsTTTTTTTTTTTTTTTTssssssssbbsssssssssssaaaaaaayyyyyaaaaassssssssssbbssssssssssssssssssbbsssssSSSSssssoooooooooo................................
...............................oooooooooosssSSSSsssTTTTTTTTTTTTTTsssssssssbbsssssssssssssaaaaaayyyyaaaaaasssssssssbbssssssssssssssssssbbssssssssSSSSsssoooooooooo.T.............................
...............................oooooooosssSSSSSsssssTTTTTTTTTTTsssssssssssbbssssssssssssssaaaaayyyaaaaaassssssssssbbssssssssssssssssssbbsssssssssSSSSSsssoooooTTTTTT............................
..............................oooooooosSSSSSSsssssssssssTTTTTTssssssssssssssssooooooooooooaaaayyyaaaaaaaooooooooooossssssssssssssssssssssssssssssssSSSSSSTTTGGGGGTTTT...........................
..............................oooooossSSSSSssssssssssssssssTssssssssssssssssoooooooooooooooaaaayaaaaaaaooooooooooooosssssssssssssssssssssssssssssssssTTGGGGGTTTTTTTTT...........................
.............................oooooossSSSSSssssssssssssssssssssssssssssssssooooooooooooooooooaaaaaaaaaooooooooooooooooossssssssssssssssssssssssssssssssTTTTTTTTTTTTTTTT..........................
............................ooooooosSSSSSssssssssssssssssssssssssssssssssooooooooooooooooooooaaaaaaaooooooooooooooooooossssssssssssssssssssssssssssssssTTTTTTTTTTTTTTTT.........................
............................oooooossSSSSsssssssssssssssssssssssssssssssooooooooo.............aaaaaa.............ooooooooossssssssssssssssssssssssssssssTTTTTTTTTTTTTT...........................
...........................oooooossSSSSssssssssssssssssssssssssssssssoooooooooo...............aaa.................oooooooossssssssssssssssssssssssssssssTTTTTTTTTTToo...........................
..........................oooooossSSSSSssssssssssssssssssssssssssssoooooooooo..................a...................ooooooooosssssssssssssssssssssssssssssSSSTTTTTToooo..........................
..........................oooooosSSSSSsssssssssssssssssssssssssssoooooooooo..........................................oooooooosssssssssssssssssssssssssssssSSSSSTsoooooo.........................
.........................oooooosSSSSSsssssssssTssssssssssssssssooooooooooo............................................ooooooooossssssssssssssssssssssssssssSSSSSsoooooo.........................
.........................ooooosSSSSSssssssTTTTTTssssssssssssssoooooooooo................................................oooooooossssssssssssssssssssssssssssSSSSSsoooooo........................
........................ooooooSSSSSssTTTGGGGGTTTTsssssssssssoooooooooo...................................................ooooooooosssssssssssssssssssssssssssSSSSSsoooooo.......................
.......................oooooosSSSTTGGGGGTTTTTTTTTsssssssssoooooooooo.......................................................oooooooosssssssssssssssssssssssssssSSSSssooooo.......................
.......................ooooosSSSSsTTTTTTTTTTTTTTTTssssssooooooooooo.........................................................ooooooooossssssssssssssssssssssssssSSSSsoooooo......................
......................ooooosSSSSSssTTTTTTTTTTTTTTTTsssssooooooooo.............................................................oooooooosssssssssssssssssssssssssSSSSSsooooo......................
.....................ooooooSSSSSsssTTTTTTTTTTTTTTssssssoooooooo................................................................ooooooossssssssssssssssssssssssssSSSSSsooooo.....................
.....................oooooSSSSSsssssTTTTTTTTTTTssssssssooooooo...................................................................oooooossssssssssssssssssssssssssSSSSSsooooo....................
....................oooooSSSSSssssssssssTTTTTTssssssssoooooo......................................................................ooooosssssssssssssssssssssssssssSSSSSooooo....................
....................ooooSSSSSssssssssssssssTssssssssssoooooo.......................................................................ooooosssssssssssssssssssssssssssSSSSSooooo...................
...................oooooSSSSsssssssTssssssssssssssssssooooo........................................................................oooooosssssssssssssssssssssssssssSSSSsooooo..................
..................oooooSSSSssssTTTTTTssssssssssssssssoooooo.........................................................................ooooossssssssssssssssssssssssssssSSSSsoooo..................
..................ooooSSSSTTTGGGGGTTTTsssssssssssssssooooo..........................................................................oooooosssssssssssssssssssssssssssSSSSSooooo.................
.................ooooSTTGGGGGTTTTTTTTTssssssssssssssoooooo...........................................................................ooooossssssssssssssssssssssssssssSSSSSooooo................
................ooooosSTTTTTTTTTTTTTTTTsssssssssssssoooooo...........................................................................oooooossssssssssssssssssssssssssssSSSssoooo................
................oooosssSTTTTTTTTTTTTTTTTssssssssssssooooo.............................................................................oooooossssssssssssssssssssssssssssSssssoooo....T..........
...............oooosssssTTTTTTTTTTTTTTsssssssssssssoooooo.............................................................................oooooosssssssssssssssssssssssssssssssssooooTTTTTT.........
...............oooossssssTTTTTTTTTTTsssssssssssssssooooo...............................................................................oooooosssssssssssssssssssssssssssssssTTTGGGGGTTTT........
..............oooosssssssssssTTTTTTsssssssssssssssoooooo...............................................................................oooooosssssssssssssssssssssssssssTTGGGGGTTTTTTTTT........
.............oooooooooosssssssssTsssssssssssssssssoooooo................................................................................oooooosssssssssssssssssssssssssssTTTTTTTTTTTTTTTT.......
.............ooooooooooooooossssssssssssssssssssssooooo.................................................................................ooooooossssssssssssssssssssssoooooTTTTTTTTTTTTTTTT......
............ooooooooooooooooooooossssssssssssssssoooooo..................................................................................oooooosssssssssssssssssooooooooooTTTTTTTTTTTTTT........
................ooooooooooooooooooooossssssssssssoooooo..................................................................................ooooooossssssssssssoooooooooooooooTTTTTTTTTTT..........
.................ooooooooooooooooooooooooossssssoooooo....................................................................................oooooosssssssooooooooooooooooooooooo.TTTTTT...........
.................ooosssoooooooooooooooooooooooosoooooo....................................................................................ooooooosoooooooooooooooooooooooooooo....T.............
.................ooosssSSSSoooooooooooooooooooooooooo......................................................................................ooooooooooooooooooooooooooobbbboooo..................
.................oooiiiiiiiiiiioooooooooooooooooooooo......................................................................................oooooooooooooooooooooooiiiiiiiioooo..................
.................oooiiiiiiiiiiiiiiioooooooooooooooooo......................................................................................oooooooooooooooooooiiiiiiiiiiiioooo..................
.................ooosssSSSSSSssssssssssooooooooooooo.......................................................................................ooooooooooooooosssssssssssbbbbboooo..................
.................ooosssSSSSSSsssssssssssssoooooooooo.......................................................................................oooooooooooossssssssssssssbbbbboooo..................
.................ooosssSSSSSSbbbbbbbbbbbsssbbboooooo.......................................................................................ooooooooSSSSbbbbbbbbbbbsssbbbbboooo..................
.................ooosssSSSSSSbbbbbbbbbbbsssbbbbboooo.......................................................................................oooossSSSSSSbbbbbbbbbbbsssbbbbboooo..................
.................ooosssSSSSSSbbbbbbbbbbbsssbbbbboooo.......................................................................................ooosssSSSSSSbbbbbbbbbbbsssbbbbboooo..................
.................ooosssSSSSSSbbbbbbbbbbbsssbbbbboooo.......................................................................................ooosssSSSSSSbbbbbbbbbbbsssbbbbboooo..................
.................ooosssSSSSSSssssssssssssssbbbbboooo.......................................................................................ooosssSSSSSSssssssssssssssbbbbboooo..................
.................ooosssSSSSSSssssssssssssssbbbbboooo.......................................................................................ooosssSSSSSSssssssssssssssbbbbboooo..................
.................ooosssSSSSSSssssssssssssssbbbbboooo.......................................................................................ooosssSSSSSSssssssssssssssbbbbboooo..................
.................ooosssSSSSSSssssssssssssssbbbbboooo.......................................................................................ooosssSSSSSSssssssssssssssbbbbboooo..................
.................ooosssSSSSSSssssssssssssssbbbbboooo.......................................................................................ooosssSSSSSSssssssssssssssbbbbboooo..................
.................ooosssSSSSSSssssssssssssssbbbbboooo.......................................................................................ooosssSSSSSSssssssssssssssbbbbboooo..................
.................ooosssSSSSSSssssssssssssssbbbbboooo.......................................................................................ooosssSSSSSSssssssssssssssbbbbboooo..................
.................ooosssSSSSSSssssssssssssssbbbbboooo.......................................................................................ooosssSSSSSSssssssssssssssbbbbboooo..................
.................ooosssSSSSSSssssssssssssssbbbbboooo.......................................................................................ooosssSSSSSSssssssssssssssbbbbboooo..................
.................ooosssSSSSSSssssssssssssssbbbbboooo.......................................................................................ooosssSSSSSSssssssssssssssbbbbboooo..................
.................ooosssSSSSSSssscssssssssssbbbbboooo.......................................................................................ooosssSSSSSSssssssscssssssbbbbboooo..................
.................ooosssSSSSSSsscscsssssssssbbbbboooo.......................................................................................ooosssSSSSSSsssssscscsssssbbbbboooo..................
.................ooosssSSSSSSccsssccsssssssbbbbboooo.......................................................................................ooosssSSSSSSssssccsssccsssbbbbboooo..................
.................ooosssSSSSScssssssscssssssbbbbboooo.......................................................................................ooosssSSSSSSssscssssssscssbbbbboooo..................
.................oooiiiiiiiciiiiiiiiiciiiiiiiiiioooo.......................................................................................oooiiiiiiiiiiiciiiiiiiiiciiiiiioooo..................
.................oooiiiiiiiiciiiiiiiciiiiiiiiiiioooo.......................................................................................oooiiiiiiiiiiiiciiiiiiiciiiiiiioooo..................
.................ooosssSSSSSSccsssccsssssssbbbbboooo.......................................................................................ooosssSSSSSSssssccsssccsssbbbbboooo..................
.................ooosssSSSSSSsscscsssssssssbbbbboooo.......................................................................................ooosssSSSSSSsssssscscsssssbbbbboooo..................
.................ooosssSSSSSSbbbcbbbbbbbsssbbbbboooo.......................................................................................ooosssSSSSSSbbbbbbbcbbbsssbbbbboooo..................
.................ooosssSSSSSSbbbbbbbbbbbsssbbbbboooo.......................................................................................ooosssSSSSSSbbbbbbbbbbbsssbbbbboooo..................
.................ooosssSSSSSSbbbbbbbbbbbsssbbbbboooo.......................................................................................ooosssSSSSSSbbbbbbbbbbbsssbbbbboooo..................
.................ooosssSSSSSSbbbbbbbbbbbsssbbbbboooo.......................................................................................ooosssSSSSSSbbbbbbbbbbbsssbbbbboooo..................
.................ooosssSSSSSSssssssssssssssbbbbboooo.......................................................................................ooosssSSSSSSssssssssssssssbbbbboooo..................
.................ooosssSSSSSSssssssssssssssbbbbboooo.......................................................................................ooosssSSSSSSssssssssssssssbbbbboooo..................
.................ooosssSSSSSSssssssssssssssbbbbboooo.......................................................................................ooosssSSSSSSssssssssssssssbbbbboooo..................
.................ooosssSSSSSSssssssssssssssbbbbboooo.......................................................................................ooosssSSSSSSssssssssssssssbbbbboooo..................
.................ooosssSSSSSSssssssssssssssbbbbboooo.......................................................................................ooosssSSSSSSssssssssssssssbbbbboooo..................
.................ooosssSSSSSSssssssssssssssbbbbboooo.......................................................................................ooosssSSSSSSssssssssssssssbbbbboooo..................
.................ooosssSSSSSSssssssssssssssbbbbboooo.......................................................................................ooosssSSSSSSssssssssssssssbbbbboooo..................
.................ooosssSSSSSSssssssssssssssbbbbboooo.......................................................................................ooosssSSSSSSssssssssssssssbbbbboooo..................
.................ooosssSSSSSSssssssssssssssbbbbboooo.......................................................................................ooosssSSSSSSssssssssssssssbbbbboooo..................
.................ooosssSSSSSSssssssssssssssbbbbboooo.......................................................................................ooosssSSSSSSssssssssssssssbbbbboooo..................
.................ooosssSSSSSSssssssssssssssbbbbboooo.......................................................................................ooosssSSSSSSssssssssssssssbbbbboooo..................
.................ooosssSSSSSSssssssssssssssbbbbboooo.......................................................................................ooosssSSSSSSssssssssssssssbbbbboooo..................
.................ooosssSSSSSSssssssssssssssbbbbboooo.......................................................................................ooosssSSSSSSssssssssssssssbbbbboooo..................
.................ooosssSSSSSSssssssssssssssbbbbboooo.......................................................................................ooosssSSSSSSssssssssssssssbbbbboooo..................
.................oooiiiiiiiiiiiiiiiiiiiiiiiiiiiioooo.......................................................................................oooiiiiiiiiiiiiiiiiiiiiiiiiiiiioooo..................
.................oooiiiiiiiiiiiiiiiiiiiiiiiiiiiioooo.......................................................................................oooiiiiiiiiiiiiiiiiiiiiiiiiiiiioooo..................
.................ooosssSSSSSSssssssssssssssbbbbboooo.......................................................................................ooosssSSSSSSssssssssssssssbbbbboooo..................
.................ooosssSSSSSSssssssssssssssbbbbboooo.......................................................................................ooosssSSSSSSssssssssssssssbbbbboooo..................
.................ooosssSSSSSSbbbbbbbbbbbsssbbbbboooo.......................................................................................ooosssSSSSSSbbbbbbbbbbbsssbbbbboooo..................
.................ooosssSSSSSSbbbbbbbbbbbsssbbbbboooo.......................................................................................ooosssSSSSSSbbbbbbbbbbbsssbbbbboooo..................
.................ooosssSSSSSSbbbbbbbbbbbsssbbbbboooo.......................................................................................ooosssSSSSSSbbbbbbbbbbbsssbbbbboooo..................
.................ooosssSSSSSSbbbbbbbbbbbsssbbbbboooo.......................................................................................ooosssSSSSSSbbbbbbbbbbbsssbbbbboooo..................
.................ooosssSSSSSSssssssssssssssbbbbboooo.......................................................................................ooosssSSSSSSssssssssssssssbbbbboooo..................
.................ooosssSSSSSSssssssssssssssbbbbboooo.......................................................................................ooosssSSSSSSssssssssssssssbbbbboooo..................
.................ooosssSSSSSSssssssssssssssbbbbboooo.......................................................................................ooosssSSSSSSssssssssssssssbbbbboooo..................
.................ooosssSSSSSSssssssssssssssbbbbboooo.......................................................................................ooosssSSSSSSssssssssssssssbbbbboooo..................
.................ooosssSSSSSSssssssssssssssbbbbboooo.......................................................................................ooosssSSSSSSssssssssssssssbbbbboooo..................
.................ooosssSSSSSSssscssssssssssbbbbboooo.......................................................................................ooosssSSSSSSssssssscssssssbbbbboooo..................
.................ooosssSSSSSSsscscsssssssssbbbbboooo.......................................................................................ooosssSSSSSSsssssscscsssssbbbbboooo..................
.................ooosssSSSSSSccsssccsssssssbbbbboooo.......................................................................................ooosssSSSSSSssssccsssccsssbbbbboooo..................
.................ooosssSSSSScssssssscssssssbbbbboooo.......................................................................................ooosssSSSSSSssscssssssscssbbbbboooo..................
.................ooosssSSSScSsssssssscsssssbbbbboooo.......................................................................................ooosssSSSSSSsscssssssssscsbbbbboooo..................
.................ooosssSSSSScssssssscssssssbbbbboooo.......................................................................................ooosssSSSSSSssscssssssscssbbbbboooo..................
.................ooosssSSSSSSccsssccsssssssbbbbboooo.......................................................................................ooosssSSSSSSssssccsssccsssbbbbboooo..................
.................ooosssSSSSSSsscscsssssssssbbbbboooo.......................................................................................ooosssSSSSSSsssssscscsssssbbbbboooo..................
.................ooosssSSSSSSssscssssssssssbbbbboooo.......................................................................................ooosssSSSSSSssssssscssssssbbbbboooo..................
.................oooiiiiiiiiiiiiiiiiiiiiiiiiiiiioooo.......................................................................................oooiiiiiiiiiiiiiiiiiiiiiiiiiiiioooo..................
.................oooiiiiiiiiiiiiiiiiiiiiiiiiiiiioooo.......................................................................................oooiiiiiiiiiiiiiiiiiiiiiiiiiiiioooo..................
.................ooosssSSSSSSssssssssssssssbbbbboooo.......................................................................................ooosssSSSSSSssssssssssssssbbbbboooo..................
.................ooosssSSSSSSssssssssssssssbbbbboooo.......................................................................................ooosssSSSSSSssssssssssssssbbbbboooo..................
.................ooosssSSSSSSbbbbbbbbbbbsssbbbbboooo.......................................................................................ooosssSSSSSSbbbbbbbbbbbsssbbbbboooo..................
.................ooosssSSSSSSbbbbbbbbbbbsssbbbbboooo.......................................................................................ooosssSSSSSSbbbbbbbbbbbsssbbbbboooo..................
.................ooosssSSSSSSbbbbbbbbbbbsssbbbbboooo.......................................................................................ooosssSSSSSSbbbbbbbbbbbsssbbbbboooo..................
.................ooosssSSSSSSbbbbbbbbbbbsssbbbbboooo.......................................................................................ooosssSSSSSSbbbbbbbbbbbsssbbbbboooo..................
.................ooosssSSSSSSssssssssssssssbbbbboooo.......................................................................................ooosssSSSSSSssssssssssssssbbbbboooo..................
.................ooosssSSSSSSssssssssssssssbbbbboooo.......................................................................................ooosssSSSSSSssssssssssssssbbbbboooo..................
.................ooosssSSSSSSssssssssssssssbbbbboooo.......................................................................................ooosssSSSSSSssssssssssssssbbbbboooo..................
.................ooosssSSSSSSssssssssssssssbbbbboooo.......................................................................................ooosssSSSSSSssssssssssssssbbbbboooo..................
.................ooosssSSSSSSssssssssssssssbbbbboooo.......................................................................................ooosssSSSSSSssssssssssssssbbbbboooo..................
.................ooosssSSSSSSssssssssssssssbbbbboooo.......................................................................................ooosssSSSSSSssssssssssssssbbbbboooo..................
.................ooosssSSSSSSssssssssssssssbbbbboooo.......................................................................................ooosssSSSSSSssssssssssssssbbbbboooo..................
.................ooosssSSSSSSssssssssssssssbbbbboooo.......................................................................................ooosssSSSSSSssssssssssssssbbbbboooo..................
.................ooosssSSSSSSssssssssssssssbbbbboooo.......................................................................................ooosssSSSSSSssssssssssssssbbbbboooo..................
.................ooosssSSSSSSssssssssssssssbbbbboooo.......................................................................................ooosssSSSSSSssssssssssssssbbbbboooo..................
.................ooosssSSSSSSssssssssssssssbbbbboooo.......................................................................................ooosssSSSSSSssssssssssssssbbbbboooo..................
.................ooosssSSSSSSssssssssssssssbbbbboooo.......................................................................................ooosssSSSSSSssssssssssssssbbbbboooo..................
.................ooosssSSSSSSssssssssssssssbbbbboooo.......................................................................................ooosssSSSSSSssssssssssssssbbbbboooo..................
.................ooosssSSSSSSssssssssssssssbbbbboooo.......................................................................................ooosssSSSSSSssssssssssssssbbbbboooo..................
.................oooiiiiiiiiiiiiiiiiiiiiiiiiiiiioooo.......................................................................................oooiiiiiiiiiiiiiiiiiiiiiiiiiiiioooo..................
.................oooiiiiiiiiiiiiiiiiiiiiiiiiiiiioooo.......................................................................................oooiiiiiiiiiiiiiiiiiiiiiiiiiiiioooo..................
.................ooosssSSSSSSssssssssssssssbbbbboooo.......................................................................................ooosssSSSSSSssssssssssssssbbbbboooo..................
.................ooosssSSSSSSssssssssssssssbbbbboooo.......................................................................................ooosssSSSSSSssssssssssssssbbbbboooo..................
.................ooosssSSSSSSbbbbbbbbbbbsssbbbbboooo.......................................................................................ooosssSSSSSSbbbbbbbbbbbsssbbbbboooo..................
.................ooosssSSSSSSbbbcbbbbbbbsssbbbbboooo.......................................................................................ooosssSSSSSSbbbbbbbcbbbsssbbbbboooo..................
.................ooosssSSSSSSbbcbcbbbbbbsssbbbbboooo.......................................................................................ooosssSSSSSSbbbbbbcbcbbsssbbbbboooo..................
.................ooosssSSSSSSccbbbccbbbbsssbbbbboooo.......................................................................................ooosssSSSSSSbbbbccbbbccsssbbbbboooo..................
.................ooosssSSSSScssssssscssssssbbbbboooo.......................................................................................ooosssSSSSSSssscssssssscssbbbbboooo..................
.................ooosssSSSScSsssssssscsssssbbbbboooo.......................................................................................ooosssSSSSSSsscssssssssscsbbbbboooo..................
.................ooosssSSSSScssssssscssssssbbbbboooo.......................................................................................ooosssSSSSSSssscssssssscssbbbbboooo..................
.................ooosssSSSSSSccsssccsssssssbbbbboooo.......................................................................................ooosssSSSSSSssssccsssccsssbbbbboooo..................
.................ooosssSSSSSSsscscsssssssssbbbbboooo.......................................................................................ooosssSSSSSSsssssscscsssssbbbbboooo..................
.................ooosssSSSSSSssscssssssssssbbbbboooo.......................................................................................ooosssSSSSSSssssssscssssssbbbbboooo..................
.................ooosssSSSSSSssssssssssssssbbbbboooo.......................................................................................ooosssSSSSSSssssssssssssssbbbbboooo..................
.................ooosssSSSSSSsssssssssTssssbbbbboooo.......................................................................................ooosssSSSSSSssssssssssssssbbbbboooo..................
.................ooosssSSSSSSsssssTTTTTTsssbbbbboooo.......................................................................................ooosssSSSSSSssssssssssssssbbbbboooo..................
.................ooosssSSSSSSTTTGGGGGTTTTssbbbbboooo.......................................................................................ooosssSSSSSSssssssssssssssbbbbboooo..................
.................ooosssSSTTGGGGGTTTTTTTTTssbbbbboooo.......................................................................................ooosssSSSSSSssssssssssssssbbbbboooo..................
.................ooosssSSSTTTTTTTTTTTTTTTTsbbbbboooo.......................................................................................ooosssSSSSSSssssssssssssssbbbbboooo..................
.................ooosssSSSSTTTTTTTTTTTTTTTTbbbbboooo.......................................................................................ooosssSSSSSSssssssssssssssbbbbboooo..................
.................ooosssSSSSTTTTTTTTTTTTTTssbbbbboooo.......................................................................................ooosssSSSSSSssssssssssssssbbbbboooo..................
.................oooiiiiiiiiTTTTTTTTTTTiiiiiiiiioooo.......................................................................................oooiiiiiiiiiiiiiiiiiiiiiiiiiiiioooo..................
.................oooiiiiiiiiiiiiTTTTTTiiiiiiiiiioooo.......................................................................................oooiiiiiiiiiiiiiiiiiiiiiiiiiiiioooo..................
.................ooosssSSSSSSssssssTsssssssbbbbboooo.......................................................................................ooosssSSSSSSssssssssssssssbbbbboooo..................
.................ooosssSSSSSSssssssssssssssbbbbboooo.......................................................................................ooosssSSSSSSssssssssssssssbbbbboooo..................
.................ooosssSSSSSSbbbbbbbbbbbsssbbbbboooo.......................................................................................ooosssSSSSSSbbbbbbbbbTbsssbbbbboooo..................
.................ooosssSSSSSSbbbbbbbbbbbsssbbbbboooo.......................................................................................ooosssSSSSSSbbbbbTTTTTTsssbbbbboooo..................
.................ooosssSSSSSSbbbbbbbbbbbsssbbbbboooo.......................................................................................ooosssSSSSSSTTTGGGGGTTTTssbbbbboooo..................
.................ooosssSSSSSSbbbbbbbbbbbsssbbbbboooo.......................................................................................ooosssSSTTGGGGGTTTTTTTTTssbbbbboooo..................
.................ooosssSSSSSSssssssssssssssbbbbboooo.......................................................................................ooosssSSSTTTTTTTTTTTTTTTTsbbbbboooo..................
.................ooosssSSSSSSssssssssssssssbbbbboooo.......................................................................................ooosssSSSSTTTTTTTTTTTTTTTTbbbbboooo..................
.................ooossssssssssssssssssssssssssssoooo.......................................................................................ooosssssssTTTTTTTTTTTTTTsssssssoooo..................
.................ooossssssssssssssssssssssssssssoooo.......................................................................................ooossssssssTTTTTTTTTTTsssssssssoooo..................
.................ooossssssssssssssssssssssssssssoooo.......................................................................................ooossssssssssssTTTTTTssssssssssoooo..................
.................ooooooooooooooooooooooooooooooooooo.......................................................................................ooooooooooooooooooToooooooooooooooo..................
.................ooooooooooooooooooooooooooooooooooo.......................................................................................ooooooooooooooooooooooooooooooooooo..................
................................................................................................................................................................................................
................................................................................................................................................................................................
