................................................................
................................................................
................................................................
................................................................
..............................ooso..............................
..............................ooso..............................
..............................ooso..............................
..............................ooso..............................
..............................ooso..............................
..............................ooso..............................
..............................ooso..............................
..............................ooso..............................
..............................oossssssssssssso..................
..............................ooooooooooooooooo.................
..........................oooooooooooooooooooooo................
..........................ooooooooooooooooooooooo...............
..........................ooooooooooooo......ooooo..............
..........................ooooooooooooo.......ooo...............
..........................ooooooooooooo........o................
..........................ooooooooooooo.........................
.......................oAAAAAAAAAAAAAAAAAo......................
.......................oAsAAAAAAAAAAAAAsAo......................
.......................oosaaaaaaaaaaaaasoo......................
.......................oosaaaaaaaaaaaaasoo......................
.......................oosaayyyyyyyyyaasoo......................
.......................oosaayyYYYYYyyaasoo......................
.......................oosaayyYYYYYyyaasoo......................
.......................oosaayyYYYYYyyaasoo......................
.......................oosaayyYYYYYyyaasoo......................
.......................oosaayyYYYYYyyaasoo......................
.......................oosaayyYYYYYyyaasoo......................
.......................oosaayyYYYYYyyaasoo......................
.......................oosaayyYYYYYyyaasoo......................
.......................oosaayyYYYYYyyaasoo......................
.......................oosaayyyyyyyyyaasoo......................
.......................oosaayyyyyyyyyaasoo......................
.......................oosaayyyyyyyyyaasoo......................
.......................oosaayyyyyyyyyaasoo......................
.......................oosaaaaaaaaaaaaasoo......................
.......................oosaaaaaaaaaaaaasoo......................
.......................oosaaaaaaaaaaaaasoo......................
.......................oosooooooooooooosoo......................
.......................oAsAAAAAAAAAAAAAsAo......................
.......................oAAAAAAAAAAAAAAAAAo......................
...............................oooo.............................
...............................ooao.............................
...............................ooao.............................
...............................ooao.............................
...............................ooao.............................
...............................ooao.............................
...............................ooao.............................
...............................ooao.............................
...............................ooao.............................
...............................ooao.............................
...............................ooao.............................
...............................ooao.............................
...............................ooao.............................
...............................ooao.............................
...............................ooao.............................
...............................ooao.............................
.........................oooooooooooooooo.......................
.........................oooooooooooooooo.......................
.........................oooooooooooooooo.......................
................................................................
