................................................................
................................................................
................................................................
................................................................
................................................................
................................................................
................................................................
................................................................
................................................................
................................................................
................................................................
................................................................
................................................................
........................ooooooooooooooooo.......................
........................ooooooooooooooooo.......................
.......................ooooooooooooooooooo......................
.......................ooosssssssssssssooo......................
......................oooosssssssssssssoooo.....................
......................ooossSSSSSSSSSSSssooo.....................
.....................oooosSsssssssssssssoooo....................
.....................ooossSssssssssssssssooo....................
....................oooosSsssssssssssssssoooo...................
....................ooossSsssssssssssssssoooo...................
....................ooosSsssssssssssssssssoooo..................
....................ooosssssssssssssssssssoooo..................
....................ooossssssssssssssssssssoooo.................
....................ooossssssssssssssssssssoooo.................
...................ooosssscccccccccccssssssoooo.................
...................ooossssdddddddddddssssssoooo.................
...................ooossssddddddddddddsssssoooo.................
...................ooossssssssssdddddssssssoooo.................
...................ooosssssssssdddddsssssssoooo.................
...................ooossssssssdddddssssssssoooo.................
...................ooosssssssssdddsssssssssoooo.................
...................oosssssssssdddddsssssssoooo..................
..................ooossssssssssdddddssssssoooo..................
..................ooosssssssssssdddddsssssoooo..................
..................ooosssssddddddddddddssssoooo..................
..................ooosssssdddddddddddsssssoooo..................
..................ooosssssdddddddddddsssssoooo..................
..................ooosssssssssssssssssssssoooo..................
..................ooosssssssssssssssssssssoooo..................
..................oossssssssssssssssssssssoooo..................
.................ooossssssssssssssssssssssoooo..................
.................ooosssssssssbbbssssssssssoooo..................
.................ooosssssssbbsssbbssssssssoooo..................
.................ooosssssbbsssssssbbbsssssoooo..................
.................ooosssbbssssssssssssbbsssoooo..................
.................ooossssssssssssssssssssssoooo..................
.................oosssssssssssssssssssssssoooo..................
.................oossssssssssssssssssssssooooo..................
................ooossssssssssssssssssssssooooo..................
................ooossssssssssssssssssssssoooo...................
................ooosssssssssgssssssssssssoooo...................
................oooossssssgggggssssssssssoogo...................
.................ooosssssgggggggggsssssgggggo...................
.................oooossggggsssggggggggggggggo...................
..................oooggggssssssssgggggggsoooo...................
...................oogggooooooooooogooooooooo...................
...................oogooooooooooooooooooooooo...................
....................ooooooooooooooooooooooooo...................
................................................................
................................................................
................................................................
