................................................................
................................................................
................................................................
...........................oooooooooo...........................
.......................oooooooooooooooooo.......................
....................ooooooobbbbbbbbbbooooooo....................
..................ooooobbbbbbbbbbbbbbbbbbooooo..................
.................oooobbbbbbwwwwwwwwwsbbbbbboooo.................
...............oooobbbbbwwwwwwwwwwwwssssbbbbboooo...............
..............ooobbbbbwwwwwsscssssssssssssbbbbbooo..............
.............ooobbbbwwwwssscCCCcciiiisssssssbbbbooo.............
............ooobbbwwwwssscCCcccCCcciiiiissssssbbbooo............
...........ooobbbwwwssccCCcciiiicCCCcciiiisssssbbbooo...........
..........ooobbbwwwsccCCciiiiiiiiiccCCiiiiiissssbbbooo..........
.........ooobbbwwsssCCciiiiiiiiiiiiiiciiiiiiSSsssbbbooo.........
........ooobbbwwsssiciiiiiiiiiiiiiiiiiiiiiiiSSssssbbbooo........
........oobbbwwsssiiiiiiiiiiiiiiiiiiiiiiiiiiiiissssbbboo........
.......oobbbwwwssiiiiiiiiiiiiiiiiiiiiiiiiiiiiiiissssbbboo.......
......ooobbbwwssiiSSiiiiiiiiiiiiiiiiiiiiiiiiiiiiisssbbbooo......
......oobbbwwssiiiSSiiiiiiiiiioiiiiiiiiiiiiicCciiisssbbboo......
.....ooobbbwwsiiiiiiiiiiiiiiioooiiiiiiiiiiiiicCiiiissbbbooo.....
.....oobbbwwssiiiiiiiiiiiiiiiooooiiiiiiiiiiiicCciiisssbbboo.....
.....oobbbwwsiiiiiiiiiiiiiiioooTooiiiiiiiiiiiicCiiiissbbboo.....
....oobbbwwsscCciiiiiiiiiiioooTTTooiiiiiiiiiiicCciiisssbbboo....
....oobbbwwscCciiiiiiiiiiiioooTYYTooiiiiiiiiiiicCiiiissbbboo....
....oobbbwwscCciiiiiiiiiiioooTTYYTooiiiiiiiiiiicCciiissbbboo....
....oobbbwwcCciiiiiiiiiiioooTTTYYTTooiiiiiiiiiiicCiiissbbboo....
...oobbbwwscCciiiiiiiiiiooooTTTYYTTTooiiiiiiiiiicCciisssbbboo...
...oobbbwwcCciiiiiiiiiiioooTTTTYYTTTTooiiiiiiiiiicCiiissbbboo...
...oobbbswcCciiiiiiiiiioooTTTTTYYTTTToooiiiiiiiiicCciissbbboo...
...oobbbscCciiiiiiiiiioooTTTTTTYYTTTTToooiiiiiiiicCciissbbboo...
...oobbbscCciiiiiiiiiioooTyyyyyyyyyyyTToooiiiiiicCciiissbbboo...
...oobbbsscCciiiiiiiioooTTyyyyyyyyyyyToooiiiiiiicCciiissbbboo...
...oobbbsscCciiiiiiiiioooTTTTTTYYTTTToooiiiiiiiiCciiiissbbboo...
...oobbbssscCciiiiiiiiioooTTTTTYYTTTToooiiiiiiicCciiiissbbboo...
...oobbbssscCciiiiiiiiiioooTTTTYYTTToooiiiiiiiicCciiiissbbboo...
...oobbbbssicCciiiiiiiiiooooTTTYYTToooiiiiiiiicCciiiiisbbbboo...
....oobbbssscCciiiiiiiiiioooTTTYYToooiiiiiiiiicCciiiissbbboo....
....oobbbsssicCciiiiiiiiiioooTTYYToooiiiiiiiiiiiiiiiissbbboo....
....oobbbsssicCciiiiiiiiiiioooTTToooiiiiiiiiiiiiiiiiissbbboo....
....oobbbbssiiiiiiiiiiiiiiiioooToooiiiiiiiiiiiiiiiiiisbbbboo....
.....oobbbsssiiiiiiiiiiiiiiiioooooiiiiiiiiiiiiiiiiiissbbboo.....
.....oobbbbssiiiiiiiiiiiiiiiioooooiiiiiiiiiiiiiiiiiisbbbboo.....
.....ooobbbsssiiiiiiiiiiiiiiiioooiiiiiiiiiiiiiiiiiissbbbooo.....
......oobbbbssiiiiiiiiiiiiiiiiioiiiiiiiiiiiiiiiiiiSSbbbboo......
......ooobbbsssiiiiiiiiciiiiiiiiiiiiiiiiciiiiiiiiiSSbbbooo......
.......oobbbbsssiiiiiiCccciiiiiiiiiiiiccCiiiiiiiissbbbboo.......
........oobbbbsssiiiiccCCcciiiiiiiiiccCCciiiiiiissbbbboo........
........ooobbbbssSSiiiiccCCcciiiiiccCCciiiiiiiissbbbbooo........
.........ooobbbbsSSiiiiicccCcciiccCCciiiiiiiiissbbbbooo.........
..........ooobbbbsssiiiiiiccCCccCCciiiiiiiiiissbbbbooo..........
...........ooobbbbsssiiiiiicccCCciiiiiiiiiiissbbbbooo...........
............ooobbbbbsssiiiiiicciiiiiiiiiiissbbbbbooo............
.............ooobbbbbbsssiiiiiiiiiiiiiiissbbbbbbooo.............
..............ooobbbbbbbssssiiiiiiiiisssbbbbbbbooo..............
...............oooobbbbbbbbssssssssssbbbbbbbboooo...............
.................oooobbbbbbbbbbbbbbbbbbbbbboooo.................
..................ooooobbbbbbbbbbbbbbbbbbooooo..................
....................ooooooobbbbbbbbbbooooooo....................
.......................oooooooooooooooooo.......................
...........................oooooooooo...........................
................................................................
................................................................
................................................................
