................................................................
................................................................
................................................................
................................................................
................................................................
..........................o.....................................
.........................oooooo.................................
........................oootoooooooo............................
.......................oootttttoooooo...........................
......................oootttGttttttoo...........................
.....................ooottGGgggggtttoo..........................
....................ooottGggggggttttooo.........................
...................ooottGggggggttttttoo.........................
..................ooottGggggggtttttttooo........................
..................ootttGgggggtttttttttooo.......................
..................oottGgggggtttttttttttoo.......................
.................oootGgggggttttttttotttooo......................
.................oottGgggggtTTTTTTTTotttoo......................
.................ootGgggggttooooooooTottoo......................
.................ootggggggtooooooooooTotooo.....................
................oootggggggtoooooooooooToooo.....................
................ootttggggtoooooooooooooTooo.....................
................ootttggggtooooooooooooooooo.....................
.................ootttgggooooooooAAAAoooooo.....................
.................ooottggtooooooooooooooooooo....................
..................ooottgttoooooooooooooooooo....................
...................oottttttooooooooooooooooo....................
....................oottttttoooooooooootooo.....................
....................ooottttrrrrrrrrrrrrooo......................
.....................oootttrrrrrrrrrrrRR........................
......................ooooorrrrrrrrrrrrrRRR.....................
......................oooooooooooooooororrrRRRRRRR..............
......................oooooooooooooooooTorrrrrrrrrr.............
......................otgTTTTTaaaadoooTTTorrrrrrrrr.............
...............ooooooootgTTTTTayyadtoTTTTTrrrrrrrrr.............
...............oaaaaaaogTTTTTTayyadttoTTTTTT....................
...............oaAAAAaogTTTTTTaaaaddtoooTTTTTTTTT...............
...............oaaaaaaogTTTTTTaaaaddttoooTTTTTTTT...............
...............oaaaaaaogTTTTTTttttddttooooTTTAAAAA..............
...............oaaaaaaotTTTTTTttttddttoooooooAAAAA..............
...............oaaaaaaoTTTTTTTtttttdttoooooooAAAAA..............
...............oaaaaaaoTTTTTTTtttttddttoooo.....sssss...........
...............ooooooooTTTTTTTtttttddttoooo.....s...s...........
...............ooooooooTTTTTTTtttttddttooooo....sssss...........
...............ooooooooTTTTTTTtttttddttooooo.AAAAAAAAAAA........
..................ooogtTTTTTTTttttttddtooooo.oaaaaaaaaao........
..................oootTTTTTTTTttttttddttooooooaayYYYyaao........
.................ooottTTTTgggggtttttddttooooooaayYYYyaao........
.................ooottTgggtttttggtttttttoooo.oaayYYYyaao........
..................oottTttttttttttggtttoooooo.oaayYYYyaao........
...................oGGGooootttttttttooGGGoo..oaayyyyyaao........
...................ooooGGGGGGooootGGGGooooobooaayyyyyaao........
....................oooooooooGGGGGoooooooobbooaaaaaaaaao........
....................oooooooooooooooooooooobboooooooooooo........
....................obbbbbbbo......obbbbbbbboAAAAAAAAAAA........
....................obbbbbbbo......obbbbbbbbo...................
....................obbbbbbbo......obbbbbbbbo...................
....................obbbbbbbo......obbbbbbbbo...................
...................osssssssssoo...ossssssssssoo.................
...................oooooooooooo...ooooooooooooo.................
...................oooooooooooo...ooooooooooooo.................
................................................................
................................................................
................................................................
