................................................................
................................................................
................................................................
................................................................
................................................................
..........................o.....................................
.........................oooooo.................................
........................oootoooooooo............................
.......................oootttttoooooo...........................
......................oootttGttttttoo...........................
.....................ooottGGgggggtttoo..........................
....................ooottGggggggttttooo.........................
...................ooottGggggggttttttoo.........................
..................ooottGggggggtttttttooo........................
..................ootttGgggggtttttttttooo.......................
..................oottGgggggtttttttttttoo.......................
.................oootGgggggttttttttotttooo......................
.................oottGgggggtTTTTTTTTotttoo......................
.................ootGgggggttooooooooTottoo......................
.................ootggggggtooooooooooTotooo.....................
................oootggggggtoooooooooooToooo.....................
................ootttggggtoooooooooooooTooo.....................
................ootttggggtoooooooyyYYoooooo.....................
.................ootttgggooooooooyyyooooooo.....................
.................ooottggtooooooooooooooooooo....................
..................ooottgttoooooooooooooooooo........r...........
...................oottttttooooooooooooooooo.rrrrrrrr...........
....................oottttttoooooooooootooo.rrrrrrrrr...........
....................ooottttrrrrrrrrrrrrooo.rrrrr................
.....................oootttrrrrrrrrrrrRR..rrrrr.................
......................ooooorrrrrrrrrrrrrRrrrrr..................
......................oooooooooooooooororrrrrRRRRR..............
......................oooooooooooooooooTorrrrrrrrrr.............
......................otgTTTTTaaaadoooTTTorrrrrrrrr.............
...............ooooooootgTTTTTayyadtoTTTTTrrrrrrrrr.............
...............oaaaaaaogTTTTTTayyadttoTTTTTT....................
...............oaAAAAaogTTTTTTaaaaddtoooTTTTTTTTT...............
...............oaaaaaaogTTTTTTaaaaddttoooTTTTTTTT...............
...............oaaaaaaogTTTTTTttttddttooooTTTAAAAA..............
...............oaaaaaaotTTTTTTttttddttoooooooAAAAA..............
...............oaaaaaaoTTTTTTTtttttdttoooooooAAAAA..............
...............oaaaaaaoTTTTTTTtttttddttoooo.....sssss...........
...............ooooooooTTTTTTTtttttddttoooo.....s...s...........
...............ooooooooTTTTTTTtttttddttooooo....sssss...........
...............ooooooooTTTTTTTtttttddttooooo.AAAAAAAAAAA........
..................ooogtTTTTTTTttttttddtooooo.oaaaaaaaaao........
..................oootTTTTTTTTttttttddttooooooaayYYYyaao........
.................ooottTTTTTTTTttttttddttooooooaayYYYyaao........
.................ooottTTTTttttttttttttttoooo.oaayYYYyaao........
..................oottTtttttttttttttttoooooo.oaayYYYyaao........
...................oGGGooootttttttttooGGGoo..oaayyyyyaao........
...................ooooGGGGGGooootGGGGooooo..oaayyyyyaao........
...................ooooooooooGGGGGooooooooo..oaaaaaaaaao........
...................oooooooooooooooooooooooo..ooooooooooo........
...................................obbbbbbo..AAAAAAAAAAA........
...................................obbbbbbo.....................
...................................obbbbbbo.....................
...................................obbbbbbo.....................
..................................ossssssssoo...................
..................................ooooooooooo...................
..................................ooooooooooo...................
................................................................
................................................................
................................................................
