................................................................
................................................................
................................................................
................................................................
................................................................
..........................o.....................................
.........................oooooo.................................
........................oootoooooooo............................
.......................oootttttoooooo...........................
......................oootttGttttttoo...........................
.....................ooottGGgggggtttoo..........................
....................ooottGggggggttttooo.........................
...................ooottGggggggttttttoo.........................
..................ooottGggggggtttttttooo........................
..................ootttGgggggtttttttttooo.......................
..................oottGgggggtttttttttttoo.......................
.................oootGgggggttttttttotttooo......................
.................oottGgggggtTTTTTTTTotttoo......................
.................ootGgggggttooooooooTottoo......................
.................ootggggggtooooooooooTotooo.....................
................oootggggggtoooooooooooToooo.....................
................ootttggggtoooooooooooooTooo.....................
................ootttggggtoooooooyyYYoooooo.....................
.................ootttgggooooooooyyyooooooo.....................
.................ooottggtooooooooooooooooooo....................
..................ooottgttoooooooooooooooooo....................
...................oottttttooooooooooooooooo....................
....................oottttttoooooooooootooo.....................
....................ooottttrrrrrrrrrrrrooo......................
.....................oootttrrrrrrrrrrrRR........................
......................ooooorrrrrrrrrrrrrRRR.....................
......................oooooooooooooooororrrRRRRRRR..............
......................oooooooooooooooooTorrrrrrrrrr.............
......................otgTTTTTaaaadoooTTTorrrrrrrrr.............
...............ooooooootgTTTTTayyadtoTTTTTrrrrrrrrr.............
...............oaaaaaaogTTTTTTayyadttoTTTTTT....................
...............oaAAAAaogTTTTTTaaaaddtoooTTTTTTTTT...............
...............oaaaaaaogTTTTTTaaaaddttoooTTTTTTTT...............
...............oaaaaaaogTTTTTTttttddttooooTTTAAAAA..............
...............oaaaaaaotTTTTTTttttddttoooooooAAAAA..............
...............oaaaaaaoTTTTTTTtttttdttoooooooAAAAA..............
...............oaaaaaaoTTTTTTTtttttddttoooo.....sssss...........
...............ooooooooTTTTTTTtttttddttoooo.....s...s...........
...............ooooooooTTTTTTTtttttddttooooo....sssss...........
...............ooooooooTTTTTTTtttttddttooooo.AAAAAAAAAAA........
..................ooogtTTTTTTTttttttddtooooo.oaaaaaaaaao........
..................oootTTTTTTTTttttttddttooooooaayYYYyaao........
.................ooottTTTTTTTTttttttddttooooooaayYYYyaao........
.................ooottTTTTttttttttttttttooooboaayYYYyaao........
.................ooottTtttttttttttttttooooooboaayYYYyaao........
.................oboGGGooootttttttttooGGGoobboaayyyyyaao........
.................obooooGGGGGGooootGGGGooooobboaayyyyyaao........
.................obboooooooooGGGGGoooooooobbboaaaaaaaaao........
.................obbbooooooooooooooooooooobbbooooooooooo........
.................obbbbbo...............obbbbbAAAAAAAAAAA........
.................obbbbbo...............obbbbbo..................
.................obbbbbo...............obbbbbo..................
.................obbbbbo..............osssssssoo................
................osssssssoo............oooooooooo................
................oooooooooo............oooooooooo................
................oooooooooo......................................
................................................................
................................................................
................................................................
