................................................................
................................................................
................................................................
................................................................
................................................................
..........................o.....................................
.........................oooooo.................................
........................oootoooooooo............................
.......................oootttttoooooo...........................
......................oootttGttttttoo...........................
.....................ooottGGgggggtttoo..........................
....................ooottGggggggttttooo.........................
...................ooottGggggggttttttoo.........................
..................ooottGggggggtttttttooo........................
..................ootttGgggggtttttttttooo.......................
..................oottGgggggtttttttttttoo.......................
.................oootGgggggttttttttotttooo......................
.................oottGgggggtTTTTTTTTotttoo......................
.................ootGgggggttooooooooTottoo......................
.................ootggggggtooooooooooTotooo.....................
................oootggggggtoooooooooooToooo.....................
................ootttggggtoooooooooooooTooo.....................
................ootttggggtoooooooyyYYoooooo.......R.............
.................ootttgggooooooooyyyooooooo......RRR............
.................ooottggtooooooooooooooooooo...RRR..............
..................ooottgttoooooooooooooooooo..RRR...............
...................oottttttooooooooooooooooo.RRR................
....................oottttttoooooooooootooo.RRR.................
....................ooottttrrrrrrrrrrrrooo.RRR..................
.....................oootttrrrrrrrrrrrRR..RRR...................
......................ooooorrrrrrrrrrrrrRRRR....................
......................oooooooooooooooororrRRRRRRRR..............
......................oooooooooooooooooTorrrrrrrrrr.............
......................otgTTTTTaaaadoooTTTorrrrrrrrr.............
...............ooooooootgTTTTTayyadtoTTTTTrrrrrrrrr.............
...............oaaaaaaogTTTTTTayyadttoTTTTTT....................
...............oaAAAAaogTTTTTTaaaaddtoooTTTTTTTTT...............
...............oaaaaaaogTTTTTTaaaaddttoooTTTTTTTT...............
...............oaaaaaaogTTTTTTttttddttooooTTTAAAAA..............
...............oaaaaaaotTTTTTTttttddttoooooooAAAAA..............
...............oaaaaaaoTTTTTTTtttttdttoooooooAAAAA..............
...............oaaaaaaoTTTTTTTtttttddttoooo.....sssss...........
...............ooooooooTTTTTTTtttttddttoooo.....s...s...........
...............ooooooooTTTTTTTtttttddttooooo....sssss...........
...............ooooooooTTTTTTTtttttddttooooo.AAAAAAAAAAA........
..................ooogtTTTTTTTttttttddtooooo.oaaaaaaaaao........
..................oootTTTTTTTTttttttddttooooooaayYYYyaao........
.................ooottTTTTTTTTttttttddttooooooaayYYYyaao........
.................ooottTTTTttttttttttttttoooo.oaayYYYyaao........
..................oottTtttttttttttttttoooooo.oaayYYYyaao........
...................oGGGooootttttttttooGGGooo.oaayyyyyaao........
...................ooooGGGGGGooootGGGGoooooo.oaayyyyyaao........
....................oooooooooGGGGGoooooooobo.oaaaaaaaaao........
.....................ooooooooooooooooooooobo.ooooooooooo........
.....................obbbbbbo.......obbbbbbo.AAAAAAAAAAA........
.....................obbbbbbo.......obbbbbbo....................
.....................obbbbbbo......ossssssssoo..................
.....................obbbbbbo......ooooooooooo..................
....................ossssssssoo....ooooooooooo..................
....................ooooooooooo.................................
....................ooooooooooo.................................
................................................................
................................................................
................................................................
