................................................................
................................................................
................................................................
................................................................
................................................................
................................................................
................................................................
................................................................
................................................................
................................................................
................................................................
................................................................
........................g.....TT................................
........................gg....TT................................
.........................gGg..TT...........T....................
.........................ggGg.TT.........TTT....................
.........................gggGgTT.......TTTT.....................
.........................ggggGGT......TTTTT.....................
..........................gggggGg...TTTTTTT.....................
........................g.ggggggGgTTTTTTTT......................
..............g.........gg..gggggg.......T......................
..............gg....TT...gGg..ggg..........T....................
...............gGg..TT...ggGg..TgT.......TTT....................
...............ggGg.TT...gggGg.TTT.....TTTT.....................
...............gggGgTT...ggggGGTT.....TTTTT.....................
...............ggggGGT....gggggGg...TTTTTTT.....................
................gggggGg.g.ggggggGggTTTTTTT......................
..............g.ggggggGgggTTgggggggg....TT......................
..............gg..gggggg.gGg..ggg..gGg..TT.T.........T..........
...............gGg..ggg..ggGg..TgT.ggGg.TTTT.......TTT..........
...............ggGg..Tg..gggGg.TTT.gggGgTTT......TTTT...........
...............gggGg.TT..ggggGGTT..ggggGGTT.....TTTTT...........
...............ggggGGTT...gggggGg...gggggGg...TTTTTTT...........
....g...........gggggGg.g.ggggggGggTggggggGgTTTTTTTT............
....gg........g.ggggggGgggTTgggggggg..gggggg.......T............
.....gGg......gg..gggggg.gGg..ggg..gGg..gggg.........T..........
.....ggGg.TT...gGg..gggT.ggGg...gT.ggGg..TggGg.....TTT.......T..
.....gggGgTT...ggGgTTTg..gggGg.TTT.gggGgTTTggGg..TTTT......TTT..
.....ggggGGT...gggGgTTT..ggggGGTTT.ggggGGTTgggGgTTTTT....TTTT...
......gggggGg..ggggGGTT...gggggGgT..gggggGgggggGGTTTT...TTTTT...
....g.ggggggGgTTgggggGg.g.ggggggGggTggggggGggggggGgT..TTTTTTT...
....gg..ggggggg.ggggggGgggTTgggggggg..ggggggggggggGgTTTTTTTT....
.....gGg..ggg.gg..gggggg.gGg..gggT.gGg..gggg..gggggg.T.....T....
.....ggGg..Tg..gGg..gggT.ggGg...gT.ggGg..TggGg..gggTTT.......T..
.....gggGg.TT..ggGgTTTgT.gggGg.TTT.gggGgTTTggGg..TgTT......TTT..
.....ggggGGTT..gggGgTTTT.ggggGGTTT.ggggGGTTgggGgTTTTT....TTTT...
......gggggGg..ggggGGTTT..gggggGgT..gggggGgggggGGTTTT...TTTTT...
....g.ggggggGgTTgggggGgTg.ggggggGggTggggggGggggggGgT..TTTTTTT...
....gg..ggggggg.ggggggGgggTTgggggggg..ggggggggggggGgTTTTTTTT....
.....gGg..gggTgg..gggggg.gGg..gggT.gGg..gggg..gggggg.T.....T....
.....ggGg...gT.gGg..gggT.ggGg...gT.ggGg..TggGg..gggTTT.......T..
.....gggGg..TT.ggGgTTTgT.gggGg.TTT.gggGgTTTggGg..TgTT......TTT..
.....ggggGG.TT.gggGgTTTT.ggggGGTTT.ggggGGTTgggGgTTTTT....TTTT...
......gggggGgT.ggggGGTTT..gggggGgTT.gggggGgggggGGTTTT...TTTTT...
......ggggggGgTTgggggGgT..ggggggGgTTggggggGggggggGgT..TTTTTTT...
........gggggg..ggggggGgTTTTggggggT...ggggggggggggGgTTTTTTTT....
..........gggT....ggggggT.....gggTT.....gggTT.gggggg.......T....
............gTT.....gggTT.......gTT.......gTT...gggT............
.............TT.......gTT........TT........TT.....gTT...........
.............TT........TT........TT........TT......TT...........
.............TT........TT........TT........TT......TT...........
.......................TT..........................TT...........
................................................................
................................................................
